X:61
T: Der Wolf ( Der Abendgang )
N: D0064
O: Europa, Mitteleuropa, Lothringen, Woelflingen
R: Ballade, Tod eines Geliebten
M: 4/4
L: 1/16
K: G
D4 | G6A2B4B2d2 | A6BAG4
D4 | G6A2B4B2d2 | A12
B2A2 | G6A2B4c2e2 | d6e2d4
d3c | B4B4A4A2F2 | G12
D4 | G6A2B4c2e2 | d6e2d4
d3c | B4B4A4A2F2 | G12

